Origami/24x24/apps/electrum-ltc.svg

<svg width="24" height="24" version="1.1" viewBox="0 0 24 24" xmlns="http://www.w3.org/2000/svg">
 <circle cx="12" cy="12" r="10" style="fill:#3399cc"/>
 <path d="m12 2a10 10 0 0 0 -10 10 10 10 0 0 0 0.01075 0.291 10 10 0 0 1 9.989 -9.791 10 10 0 0 1 9.9895 9.709 10 10 0 0 0 0.01074 -0.20895 10 10 0 0 0 -10 -10z" style="fill:#ffffff;opacity:.2"/>
 <path d="M 21.9895,12.2 A 10,10 0 0 1 12,22 10,10 0 0 1 2.011,12.25 10,10 0 0 0 2,12.5 a 10,10 0 0 0 10,10 10,10 0 0 0 10,-10 10,10 0 0 0 -0.01075,-0.29105 z" style="opacity:.2"/>
 <path d="m9.9570312 4.1386844c-0.8703698-0.0471078-1.711128 0.125691-2.4609374 0.5585937-1.3294744 0.7675724-2.0913014 2.194328-2.3164063 3.8652344-1.3347662 1.030092-2.1894531 2.4021745-2.1894531 3.9375005s0.8546869 2.907408 2.1894531 3.9375c0.2251052 1.670905 0.9869318 3.097662 2.3164063 3.865234 1.3294795 0.767576 2.9446032 0.712954 4.5039062 0.07227 1.559559 0.640455 3.176422 0.695285 4.505859-0.07227 1.329517-0.767596 2.087725-2.194435 2.3125-3.865234 1.335482-1.030199 2.191407-2.401696 2.191407-3.9375s-0.855925-2.9073015-2.191407-3.9375005c-0.224773-1.6708079-0.982979-3.097635-2.3125-3.8652344-1.329437-0.7675508-2.9463-0.712721-4.505859-0.0722656-0.679828-0.2793111-1.370144-0.4499122-2.0429688-0.4863281zm-0.037109 1.015625c0.2625638 0.0149592 0.5339648 0.0638268 0.8085938 0.1289062-0.683877 0.428811-1.3448453 0.9719066-1.9648441 1.6074219-0.8623372 0.2197553-1.6642258 0.5215071-2.3789063 0.9003906 0.2964649-0.9908316 0.8429975-1.7617034 1.6210938-2.2109375 0.5654952-0.3264888 1.2148642-0.4656171 1.9140628-0.4257812zm4.1601558 0c0.699198-0.039836 1.350521 0.099292 1.916016 0.4257812 0.778096 0.449234 1.322675 1.2201058 1.61914 2.2109375-0.71468-0.3788835-1.516569-0.6806353-2.378906-0.9003906-0.6206-0.6355913-1.280504-1.1786108-1.964844-1.6074219 0.274876-0.0651787 0.545803-0.1139341 0.808594-0.1289062zm-2.078125 0.5898437c0.043 0.020953 0.08581 0.036547 0.128906 0.058594 0.401814 0.2055717 0.803534 0.4608267 1.199219 0.7578125-0.435358-0.0424971-0.877029-0.0703127-1.330078-0.0703127-0.452377 0-0.893383 0.02794-1.328125 0.070312 0.39534-0.2966377 0.795816-0.5504736 1.197266-0.7558594 0.04436-0.022697 0.08855-0.039009 0.132812-0.060546zm-0.001953 1.765625c0.952441 0 1.861478 0.1117466 2.707031 0.3046875 0.589112 0.6353135 1.13955 1.3674968 1.615235 2.1914064 0.475935 0.824344 0.832429 1.666225 1.08789 2.494141-0.255662 0.828263-0.611955 1.67175-1.08789 2.496094-0.475781 0.824077-1.026187 1.554399-1.615235 2.189453-0.845553 0.192941-1.75459 0.304687-2.707031 0.304687s-1.861478-0.111746-2.7070312-0.304687c-0.5890476-0.635054-1.1394534-1.365376-1.6152344-2.189453-0.4759354-0.824345-0.8322285-1.667831-1.0878906-2.496094 0.2554613-0.827916 0.6119552-1.669796 1.0878906-2.494141 0.4757811-0.8240771 1.0259863-1.5560051 1.6152344-2.1914064 0.8455532-0.1929409 1.7545902-0.3046875 2.7070312-0.3046875zm-4.4785156 0.8710938c-0.2539981 0.3553955-0.5003528 0.723428-0.7265625 1.1152344-0.2262961 0.3919563-0.4207282 0.7877277-0.6015625 1.1855477-0.0592398-0.490745-0.0794985-0.967567-0.0566406-1.4179696 0.0024852-0.0489714 0.0102642-0.0942553 0.0136718-0.1425781 0.0396477-0.026762 0.0745898-0.0557319 0.1152344-0.0820313 0.3786961-0.2450387 0.8011528-0.4641104 1.2558594-0.6582031zm8.9570316 0c0.454706 0.1940927 0.877163 0.4131644 1.255859 0.6582031 0.04143 0.026806 0.0768 0.056698 0.117187 0.083984 0.0034 0.048323 0.01119 0.093607 0.01367 0.1425781 0.02286 0.4504114 6.49e-4 0.9252609-0.05859 1.4160159-0.180741-0.397874-0.375268-0.7935906-0.601564-1.1855467-0.226209-0.3918065-0.472469-0.7598937-0.726562-1.1152344zm-5.228516 0.1191406-0.970703 3.8828125-1.029297 0.267579l-0.25 1 1.029297-0.267579-0.529297 2.117188h5.25l0.5-1h-3.5l0.417969-1.673828 1.632812-0.425781 0.25-1-1.632812 0.425781 0.832031-3.3261725zm-6.1367188 1.4941406c0.0295 0.8067919 0.1696513 1.6510449 0.4101563 2.5058599-0.2405841 0.854968-0.3806515 1.698926-0.4101563 2.505859-0.7089113-0.751789-1.1035156-1.608015-1.1035156-2.505859s0.3946043-1.754071 1.1035156-2.5058599zm13.773438 0c0.708911 0.7517889 1.103515 1.6080159 1.103515 2.5058599s-0.394604 1.75407-1.103515 2.505859c-0.02936-0.806994-0.169919-1.650729-0.410157-2.505859 0.240169-0.855012 0.380812-1.698976 0.410157-2.5058599zm-12.69336 4.3242189c0.1808343 0.39782 0.3752664 0.795544 0.6015625 1.1875 0.2262095 0.391807 0.4725645 0.757886 0.7265625 1.113282-0.4547066-0.194093-0.8771633-0.413165-1.2558594-0.658203-0.040645-0.0263-0.075587-0.05527-0.1152344-0.08203-0.00346-0.04897-0.011153-0.09489-0.013672-0.144531-0.022858-0.450403-0.0025-0.925444 0.056641-1.416016zm11.613282 0c0.05914 0.490572 0.0795 0.965613 0.05664 1.416016-0.0025 0.04964-0.01021 0.09556-0.01367 0.144531-0.03965 0.02676-0.07459 0.05573-0.115234 0.08203-0.378696 0.245038-0.801153 0.46411-1.255859 0.658203 0.254093-0.355341 0.500353-0.721475 0.726562-1.113282 0.226296-0.391956 0.420823-0.789625 0.601563-1.1875zm-11.419922 2.890625c0.7142911 0.378509 1.5152326 0.680793 2.3769531 0.900391 0.6195914 0.635098 1.2794901 1.178748 1.9628901 1.607422-1.0054615 0.238263-1.9433853 0.151909-2.7207026-0.296875-0.7780265-0.449194-1.3229452-1.219736-1.6191406-2.210938zm11.226562 0c-0.29626 0.990765-0.839396 1.761881-1.617187 2.210938-0.777261 0.448752-1.717277 0.535072-2.722656 0.296875 0.683862-0.428674 1.342699-0.972249 1.96289-1.607422 0.861721-0.219598 1.662662-0.521882 2.376953-0.900391zm-6.939453 1.230469c0.434126 0.04225 0.874467 0.07031 1.326172 0.07031 0.452377 0 0.893383-0.02794 1.328125-0.07031-0.394576 0.295797-0.796514 0.550831-1.197266 0.755859-0.04401 0.02252-0.08695 0.03917-0.130859 0.06055-0.04391-0.02138-0.08685-0.03803-0.130859-0.06055-0.40071-0.205007-0.800776-0.460101-1.195313-0.755859z" style="opacity:.2"/>
 <path d="m9.9570312 3.6386719c-0.8703698-0.0471078-1.711128 0.125691-2.4609374 0.5585937-1.3294744 0.7675724-2.0913014 2.194328-2.3164063 3.8652344-1.3347662 1.030092-2.1894531 2.402174-2.1894531 3.9375s0.8546869 2.907408 2.1894531 3.9375c0.2251052 1.670905 0.9869318 3.097662 2.3164063 3.865234 1.3294795 0.767576 2.9446032 0.712954 4.5039062 0.072266 1.559559 0.640455 3.176422 0.695285 4.505859-0.072266 1.329517-0.767596 2.087725-2.194435 2.3125-3.865234 1.335482-1.030199 2.191407-2.401696 2.191407-3.9375s-0.855925-2.907301-2.191407-3.9375c-0.224773-1.6708079-0.982979-3.097635-2.3125-3.8652344-1.329437-0.7675508-2.9463-0.712721-4.505859-0.0722656-0.679828-0.2793111-1.370144-0.4499122-2.0429688-0.4863281zm-0.0371093 1.015625c0.2625641 0.0149592 0.5339651 0.0638268 0.8085941 0.1289062-0.683877 0.428811-1.3448453 0.9719066-1.9648441 1.6074219-0.8623372 0.2197553-1.6642258 0.5215071-2.3789063 0.9003906 0.2964649-0.9908316 0.8429975-1.7617034 1.6210938-2.2109375 0.5654952-0.3264888 1.2148642-0.4656171 1.9140625-0.4257812zm4.1601561 0c0.699198-0.0398359 1.350521 0.0992925 1.916016 0.4257812 0.778096 0.449234 1.322675 1.2201058 1.61914 2.2109375-0.71468-0.3788835-1.516569-0.6806353-2.378906-0.9003906-0.6206-0.6355913-1.280504-1.1786108-1.964844-1.6074219 0.274876-0.0651787 0.545803-0.1139341 0.808594-0.1289062zm-2.078125 0.5898437c0.042996 0.0209529 0.085812 0.0365465 0.128906 0.0585938 0.401814 0.2055717 0.803534 0.4608267 1.199219 0.7578125-0.435358-0.0424969-0.877029-0.0703125-1.330078-0.0703125-0.452377 0-0.893383 0.0279396-1.328125 0.0703125 0.39534-0.2966377 0.795816-0.5504736 1.197266-0.7558594 0.044364-0.0226974 0.088551-0.0390094 0.132812-0.0605469zm-0.001953 1.765625c0.952441 0 1.861478 0.1117466 2.707031 0.3046875 0.589112 0.6353135 1.13955 1.3674968 1.615235 2.1914063 0.475935 0.8243436 0.832429 1.6662246 1.08789 2.4941406-0.255662 0.828263-0.611955 1.67175-1.08789 2.496094-0.475781 0.824077-1.026187 1.554399-1.615235 2.189453-0.845553 0.192941-1.75459 0.304687-2.707031 0.304687s-1.861478-0.111746-2.7070312-0.304687c-0.5890476-0.635054-1.1394534-1.365376-1.6152344-2.189453-0.4759354-0.824345-0.8322285-1.667831-1.0878906-2.496094 0.2554613-0.827916 0.6119552-1.669796 1.0878906-2.4941406 0.4757811-0.824077 1.0259863-1.556005 1.6152344-2.1914063 0.8455532-0.1929409 1.7545902-0.3046875 2.7070312-0.3046875zm-4.4785156 0.8710938c-0.2539981 0.3553955-0.5003528 0.723428-0.7265625 1.1152344-0.2262961 0.3919563-0.4207282 0.787727-0.6015625 1.1855472-0.0592398-0.4907447-0.0794985-0.9675665-0.0566406-1.4179691 0.0024852-0.0489714 0.0102642-0.0942553 0.0136718-0.1425781 0.0396477-0.026762 0.0745898-0.0557319 0.1152344-0.0820313 0.3786961-0.2450387 0.8011528-0.4641104 1.2558594-0.6582031zm8.9570316 0c0.454706 0.1940927 0.877163 0.4131644 1.255859 0.6582031 0.041427 0.0268059 0.076796 0.0566981 0.117187 0.0839844 0.003408 0.0483228 0.011187 0.0936067 0.013672 0.1425781 0.022859 0.4504114 6.49e-4 0.9252612-0.058593 1.416016-0.18074-0.397875-0.375267-0.7935911-0.601563-1.1855472-0.226209-0.3918065-0.472469-0.7598937-0.726562-1.1152344zm-5.228516 0.1191406l-0.970703 3.882812-1.029297 0.267579-0.25 1 1.029297-0.267579-0.529297 2.117188h5.25l0.5-1h-3.5l0.417969-1.673828 1.632812-0.425781 0.25-1-1.632812 0.425781 0.832031-3.326172h-2zm-6.1367188 1.4941406c0.0294997 0.8067914 0.1696513 1.6510444 0.4101563 2.5058594-0.2405841 0.854968-0.3806515 1.698926-0.4101563 2.505859-0.7089113-0.751789-1.1035156-1.608015-1.1035156-2.505859s0.3946043-1.754071 1.1035156-2.5058594zm13.773438 0c0.708911 0.7517884 1.103515 1.6080154 1.103515 2.5058594s-0.394604 1.75407-1.103515 2.505859c-0.029358-0.806994-0.169919-1.650729-0.410157-2.505859 0.240169-0.855012 0.380812-1.698976 0.410157-2.5058594zm-12.69336 4.3242184c0.1808343 0.39782 0.3752664 0.795544 0.6015625 1.1875 0.2262095 0.391807 0.4725645 0.757886 0.7265625 1.113282-0.4547066-0.194093-0.8771633-0.413165-1.2558594-0.658203-0.0406446-0.0263-0.0755867-0.05527-0.1152344-0.082032-0.0034649-0.048972-0.0111528-0.094895-0.0136718-0.144531-0.022858-0.450403-0.0024995-0.925444 0.0566406-1.416016zm11.613282 0c0.05914 0.490572 0.079499 0.965613 0.05664 1.416016-0.002519 0.049636-0.010207 0.095559-0.013672 0.144531-0.039647 0.026762-0.074589 0.055732-0.115234 0.082032-0.378696 0.245038-0.801153 0.46411-1.255859 0.658203 0.254093-0.355341 0.500353-0.721475 0.726562-1.113282 0.226296-0.391956 0.420823-0.789625 0.601563-1.1875zm-11.419922 2.890625c0.7142911 0.378509 1.5152326 0.680793 2.3769531 0.900391 0.6195914 0.635098 1.2794901 1.178748 1.9628901 1.607422-1.0054615 0.238263-1.9433853 0.151909-2.7207026-0.296875-0.7780265-0.449194-1.3229452-1.219736-1.6191406-2.210938zm11.226562 0c-0.29626 0.990765-0.839396 1.761881-1.617187 2.210938-0.777261 0.448752-1.717277 0.535072-2.722656 0.296875 0.683862-0.428674 1.342699-0.972249 1.96289-1.607422 0.861721-0.219598 1.662662-0.521882 2.376953-0.900391zm-6.939453 1.230469c0.434126 0.042249 0.874467 0.070313 1.326172 0.070313 0.452377 0 0.893383-0.02794 1.328125-0.070313-0.394576 0.295797-0.796514 0.550831-1.197266 0.755859-0.044006 0.022515-0.086953 0.039172-0.130859 0.060547-0.043906-0.021375-0.086853-0.038032-0.130859-0.060547-0.40071-0.205007-0.800776-0.460101-1.195313-0.755859z" style="fill:#ffffff"/>
</svg>

<svg xmlns="http://www.w3.org/2000/svg" width="24" height="24" version="1.1" viewBox="0 0 24 24">
 <circle style="fill:#3399cc" cx="12" cy="12" r="10"/>
 <path style="opacity:0.2;fill:#ffffff" d="m 12,2 a 10,10 0 0 0 -10,10 10,10 0 0 0 0.01075,0.291 10,10 0 0 1 9.989,-9.791 10,10 0 0 1 9.9895,9.709 10,10 0 0 0 0.01074,-0.20895 10,10 0 0 0 -10,-10 z"/>
 <path style="opacity:0.2" d="M 21.9895,12.2 A 10,10 0 0 1 12,22 10,10 0 0 1 2.011,12.25 10,10 0 0 0 2,12.5 a 10,10 0 0 0 10,10 10,10 0 0 0 10,-10 10,10 0 0 0 -0.01075,-0.29105 z"/>
 <path style="opacity:0.2" d="M 9.9570312,4.1386844 C 9.0866614,4.0915766 8.2459032,4.2643754 7.4960938,4.6972781 6.1666194,5.4648505 5.4047924,6.8916061 5.1796875,8.5625125 3.8449213,9.5926045 2.9902344,10.964687 2.9902344,12.500013 c 0,1.535326 0.8546869,2.907408 2.1894531,3.9375 0.2251052,1.670905 0.9869318,3.097662 2.3164063,3.865234 1.3294795,0.767576 2.9446032,0.712954 4.5039062,0.07227 1.559559,0.640455 3.176422,0.695285 4.505859,-0.07227 1.329517,-0.767596 2.087725,-2.194435 2.3125,-3.865234 1.335482,-1.030199 2.191407,-2.401696 2.191407,-3.9375 0,-1.535804 -0.855925,-2.9073015 -2.191407,-3.9375005 C 18.593586,6.8917046 17.83538,5.4648775 16.505859,4.6972781 15.176422,3.9297273 13.559559,3.9845571 12,4.6250125 11.320172,4.3457014 10.629856,4.1751003 9.9570312,4.1386844 Z m -0.037109,1.015625 C 10.182486,5.1692686 10.453887,5.2181362 10.728516,5.2832156 10.044639,5.7120266 9.3836707,6.2551222 8.7636719,6.8906375 7.9013347,7.1103928 7.0994461,7.4121446 6.3847656,7.7910281 6.6812305,6.8001965 7.2277631,6.0293247 8.0058594,5.5800906 8.5713546,5.2536018 9.2207236,5.1144735 9.9199222,5.1543094 Z m 4.1601558,0 c 0.699198,-0.039836 1.350521,0.099292 1.916016,0.4257812 0.778096,0.449234 1.322675,1.2201058 1.61914,2.2109375 C 16.900554,7.4121446 16.098665,7.1103928 15.236328,6.8906375 14.615728,6.2550462 13.955824,5.7120267 13.271484,5.2832156 13.54636,5.2180369 13.817287,5.1692815 14.080078,5.1543094 Z m -2.078125,0.5898437 c 0.043,0.020953 0.08581,0.036547 0.128906,0.058594 0.401814,0.2055717 0.803534,0.4608267 1.199219,0.7578125 C 12.89472,6.5180625 12.453049,6.4902469 12,6.4902469 c -0.452377,0 -0.893383,0.02794 -1.328125,0.070312 0.39534,-0.2966377 0.795816,-0.5504736 1.197266,-0.7558594 0.04436,-0.022697 0.08855,-0.039009 0.132812,-0.060546 z M 12,7.5097781 c 0.952441,0 1.861478,0.1117466 2.707031,0.3046875 0.589112,0.6353135 1.13955,1.3674968 1.615235,2.1914064 0.475935,0.824344 0.832429,1.666225 1.08789,2.494141 -0.255662,0.828263 -0.611955,1.67175 -1.08789,2.496094 -0.475781,0.824077 -1.026187,1.554399 -1.615235,2.189453 -0.845553,0.192941 -1.75459,0.304687 -2.707031,0.304687 -0.952441,0 -1.861478,-0.111746 -2.7070312,-0.304687 C 8.7039212,16.550506 8.1535154,15.820184 7.6777344,14.996107 7.201799,14.171762 6.8455059,13.328276 6.5898438,12.500013 6.8453051,11.672097 7.201799,10.830217 7.6777344,10.005872 8.1535155,9.1817949 8.7037207,8.4498669 9.2929688,7.8144656 10.138522,7.6215247 11.047559,7.5097781 12,7.5097781 Z M 7.5214844,8.3808719 C 7.2674863,8.7362674 7.0211316,9.1042999 6.7949219,9.4961063 6.5686258,9.8880626 6.3741937,10.283834 6.1933594,10.681654 6.1341196,10.190909 6.1138609,9.714087 6.1367188,9.2636844 6.139204,9.214713 6.146983,9.1694291 6.1503906,9.1211063 6.1900383,9.0943443 6.2249804,9.0653744 6.265625,9.039075 6.6443211,8.7940363 7.0667778,8.5749646 7.5214844,8.3808719 Z m 8.9570316,0 c 0.454706,0.1940927 0.877163,0.4131644 1.255859,0.6582031 0.04143,0.026806 0.0768,0.056698 0.117187,0.083984 0.0034,0.048323 0.01119,0.093607 0.01367,0.1425781 0.02286,0.4504114 6.49e-4,0.9252609 -0.05859,1.4160159 C 17.625901,10.283779 17.431374,9.8880624 17.205078,9.4961063 16.978869,9.1042998 16.732609,8.7362126 16.478516,8.3808719 Z M 11.25,8.5000125 10.279297,12.382825 9.25,12.650404 l -0.25,1 1.029297,-0.267579 L 9.5,15.500013 h 5.25 l 0.5,-1 h -3.5 l 0.417969,-1.673828 1.632812,-0.425781 0.25,-1 -1.632812,0.425781 L 13.25,8.5000125 Z M 5.1132812,9.9941531 c 0.0295,0.8067919 0.1696513,1.6510449 0.4101563,2.5058599 -0.2405841,0.854968 -0.3806515,1.698926 -0.4101563,2.505859 -0.7089113,-0.751789 -1.1035156,-1.608015 -1.1035156,-2.505859 0,-0.897844 0.3946043,-1.754071 1.1035156,-2.5058599 z m 13.7734378,0 c 0.708911,0.7517889 1.103515,1.6080159 1.103515,2.5058599 0,0.897844 -0.394604,1.75407 -1.103515,2.505859 -0.02936,-0.806994 -0.169919,-1.650729 -0.410157,-2.505859 0.240169,-0.855012 0.380812,-1.698976 0.410157,-2.5058599 z M 6.1933594,14.318372 c 0.1808343,0.39782 0.3752664,0.795544 0.6015625,1.1875 0.2262095,0.391807 0.4725645,0.757886 0.7265625,1.113282 -0.4547066,-0.194093 -0.8771633,-0.413165 -1.2558594,-0.658203 -0.040645,-0.0263 -0.075587,-0.05527 -0.1152344,-0.08203 -0.00346,-0.04897 -0.011153,-0.09489 -0.013672,-0.144531 -0.022858,-0.450403 -0.0025,-0.925444 0.056641,-1.416016 z m 11.6132816,0 c 0.05914,0.490572 0.0795,0.965613 0.05664,1.416016 -0.0025,0.04964 -0.01021,0.09556 -0.01367,0.144531 -0.03965,0.02676 -0.07459,0.05573 -0.115234,0.08203 -0.378696,0.245038 -0.801153,0.46411 -1.255859,0.658203 0.254093,-0.355341 0.500353,-0.721475 0.726562,-1.113282 0.226296,-0.391956 0.420823,-0.789625 0.601563,-1.1875 z M 6.3867188,17.208997 c 0.7142911,0.378509 1.5152326,0.680793 2.3769531,0.900391 0.6195914,0.635098 1.2794901,1.178748 1.9628901,1.607422 C 9.7211005,19.955073 8.7831767,19.868719 8.0058594,19.419935 7.2278329,18.970741 6.6829142,18.200199 6.3867188,17.208997 Z m 11.2265622,0 c -0.29626,0.990765 -0.839396,1.761881 -1.617187,2.210938 -0.777261,0.448752 -1.717277,0.535072 -2.722656,0.296875 0.683862,-0.428674 1.342699,-0.972249 1.96289,-1.607422 0.861721,-0.219598 1.662662,-0.521882 2.376953,-0.900391 z m -6.939453,1.230469 c 0.434126,0.04225 0.874467,0.07031 1.326172,0.07031 0.452377,0 0.893383,-0.02794 1.328125,-0.07031 -0.394576,0.295797 -0.796514,0.550831 -1.197266,0.755859 -0.04401,0.02252 -0.08695,0.03917 -0.130859,0.06055 -0.04391,-0.02138 -0.08685,-0.03803 -0.130859,-0.06055 -0.40071,-0.205007 -0.800776,-0.460101 -1.195313,-0.755859 z"/>
 <path style="fill:#ffffff" d="M 9.9570312 3.6386719 C 9.0866614 3.5915641 8.2459032 3.7643629 7.4960938 4.1972656 C 6.1666194 4.964838 5.4047924 6.3915936 5.1796875 8.0625 C 3.8449213 9.092592 2.9902344 10.464674 2.9902344 12 C 2.9902344 13.535326 3.8449213 14.907408 5.1796875 15.9375 C 5.4047927 17.608405 6.1666193 19.035162 7.4960938 19.802734 C 8.8255733 20.57031 10.440697 20.515688 12 19.875 C 13.559559 20.515455 15.176422 20.570285 16.505859 19.802734 C 17.835376 19.035138 18.593584 17.608299 18.818359 15.9375 C 20.153841 14.907301 21.009766 13.535804 21.009766 12 C 21.009766 10.464196 20.153841 9.092699 18.818359 8.0625 C 18.593586 6.3916921 17.83538 4.964865 16.505859 4.1972656 C 15.176422 3.4297148 13.559559 3.4845446 12 4.125 C 11.320172 3.8456889 10.629856 3.6750878 9.9570312 3.6386719 z M 9.9199219 4.6542969 C 10.182486 4.6692561 10.453887 4.7181237 10.728516 4.7832031 C 10.044639 5.2120141 9.3836707 5.7551097 8.7636719 6.390625 C 7.9013347 6.6103803 7.0994461 6.9121321 6.3847656 7.2910156 C 6.6812305 6.300184 7.2277631 5.5293122 8.0058594 5.0800781 C 8.5713546 4.7535893 9.2207236 4.614461 9.9199219 4.6542969 z M 14.080078 4.6542969 C 14.779276 4.614461 15.430599 4.7535894 15.996094 5.0800781 C 16.77419 5.5293121 17.318769 6.3001839 17.615234 7.2910156 C 16.900554 6.9121321 16.098665 6.6103803 15.236328 6.390625 C 14.615728 5.7550337 13.955824 5.2120142 13.271484 4.7832031 C 13.54636 4.7180244 13.817287 4.669269 14.080078 4.6542969 z M 12.001953 5.2441406 C 12.044949 5.2650935 12.087765 5.2806871 12.130859 5.3027344 C 12.532673 5.5083061 12.934393 5.7635611 13.330078 6.0605469 C 12.89472 6.01805 12.453049 5.9902344 12 5.9902344 C 11.547623 5.9902344 11.106617 6.018174 10.671875 6.0605469 C 11.067215 5.7639092 11.467691 5.5100733 11.869141 5.3046875 C 11.913505 5.2819901 11.957692 5.2656781 12.001953 5.2441406 z M 12 7.0097656 C 12.952441 7.0097656 13.861478 7.1215122 14.707031 7.3144531 C 15.296143 7.9497666 15.846581 8.6819499 16.322266 9.5058594 C 16.798201 10.330203 17.154695 11.172084 17.410156 12 C 17.154494 12.828263 16.798201 13.67175 16.322266 14.496094 C 15.846485 15.320171 15.296079 16.050493 14.707031 16.685547 C 13.861478 16.878488 12.952441 16.990234 12 16.990234 C 11.047559 16.990234 10.138522 16.878488 9.2929688 16.685547 C 8.7039212 16.050493 8.1535154 15.320171 7.6777344 14.496094 C 7.201799 13.671749 6.8455059 12.828263 6.5898438 12 C 6.8453051 11.172084 7.201799 10.330204 7.6777344 9.5058594 C 8.1535155 8.6817824 8.7037207 7.9498544 9.2929688 7.3144531 C 10.138522 7.1215122 11.047559 7.0097656 12 7.0097656 z M 7.5214844 7.8808594 C 7.2674863 8.2362549 7.0211316 8.6042874 6.7949219 8.9960938 C 6.5686258 9.3880501 6.3741937 9.7838208 6.1933594 10.181641 C 6.1341196 9.6908963 6.1138609 9.2140745 6.1367188 8.7636719 C 6.139204 8.7147005 6.146983 8.6694166 6.1503906 8.6210938 C 6.1900383 8.5943318 6.2249804 8.5653619 6.265625 8.5390625 C 6.6443211 8.2940238 7.0667778 8.0749521 7.5214844 7.8808594 z M 16.478516 7.8808594 C 16.933222 8.0749521 17.355679 8.2940238 17.734375 8.5390625 C 17.775802 8.5658684 17.811171 8.5957606 17.851562 8.6230469 C 17.85497 8.6713697 17.862749 8.7166536 17.865234 8.765625 C 17.888093 9.2160364 17.865883 9.6908862 17.806641 10.181641 C 17.625901 9.783766 17.431374 9.3880499 17.205078 8.9960938 C 16.978869 8.6042873 16.732609 8.2362001 16.478516 7.8808594 z M 11.25 8 L 10.279297 11.882812 L 9.25 12.150391 L 9 13.150391 L 10.029297 12.882812 L 9.5 15 L 14.75 15 L 15.25 14 L 11.75 14 L 12.167969 12.326172 L 13.800781 11.900391 L 14.050781 10.900391 L 12.417969 11.326172 L 13.25 8 L 11.25 8 z M 5.1132812 9.4941406 C 5.1427809 10.300932 5.2829325 11.145185 5.5234375 12 C 5.2828534 12.854968 5.142786 13.698926 5.1132812 14.505859 C 4.4043699 13.75407 4.0097656 12.897844 4.0097656 12 C 4.0097656 11.102156 4.4043699 10.245929 5.1132812 9.4941406 z M 18.886719 9.4941406 C 19.59563 10.245929 19.990234 11.102156 19.990234 12 C 19.990234 12.897844 19.59563 13.75407 18.886719 14.505859 C 18.857361 13.698865 18.7168 12.85513 18.476562 12 C 18.716731 11.144988 18.857374 10.301024 18.886719 9.4941406 z M 6.1933594 13.818359 C 6.3741937 14.216179 6.5686258 14.613903 6.7949219 15.005859 C 7.0211314 15.397666 7.2674864 15.763745 7.5214844 16.119141 C 7.0667778 15.925048 6.6443211 15.705976 6.265625 15.460938 C 6.2249804 15.434638 6.1900383 15.405668 6.1503906 15.378906 C 6.1469257 15.329934 6.1392378 15.284011 6.1367188 15.234375 C 6.1138608 14.783972 6.1342193 14.308931 6.1933594 13.818359 z M 17.806641 13.818359 C 17.865781 14.308931 17.88614 14.783972 17.863281 15.234375 C 17.860762 15.284011 17.853074 15.329934 17.849609 15.378906 C 17.809962 15.405668 17.77502 15.434638 17.734375 15.460938 C 17.355679 15.705976 16.933222 15.925048 16.478516 16.119141 C 16.732609 15.7638 16.978869 15.397666 17.205078 15.005859 C 17.431374 14.613903 17.625901 14.216234 17.806641 13.818359 z M 6.3867188 16.708984 C 7.1010099 17.087493 7.9019514 17.389777 8.7636719 17.609375 C 9.3832633 18.244473 10.043162 18.788123 10.726562 19.216797 C 9.7211005 19.45506 8.7831767 19.368706 8.0058594 18.919922 C 7.2278329 18.470728 6.6829142 17.700186 6.3867188 16.708984 z M 17.613281 16.708984 C 17.317021 17.699749 16.773885 18.470865 15.996094 18.919922 C 15.218833 19.368674 14.278817 19.454994 13.273438 19.216797 C 13.9573 18.788123 14.616137 18.244548 15.236328 17.609375 C 16.098049 17.389777 16.89899 17.087493 17.613281 16.708984 z M 10.673828 17.939453 C 11.107954 17.981702 11.548295 18.009766 12 18.009766 C 12.452377 18.009766 12.893383 17.981826 13.328125 17.939453 C 12.933549 18.23525 12.531611 18.490284 12.130859 18.695312 C 12.086853 18.717827 12.043906 18.734484 12 18.755859 C 11.956094 18.734484 11.913147 18.717827 11.869141 18.695312 C 11.468431 18.490305 11.068365 18.235211 10.673828 17.939453 z"/>
</svg>
